openmetadata-ui/src/main/resources/ui/src/assets/svg/data-asset.svg

<svg width="14" height="14" viewBox="0 0 14 14" fill="none" xmlns="http://www.w3.org/2000/svg">
<path d="M8.5981 7.19995H11.4258C11.5265 7.59009 11.9015 7.84438 12.301 7.7936C12.7005 7.74282 13 7.40288 13 6.99995C13 6.59712 12.7005 6.25709 12.301 6.20641C11.9015 6.15562 11.5265 6.40992 11.4258 6.79996H8.5981V4.79997H9.59785C9.92912 4.79997 10.1977 4.53142 10.1977 4.19998V2.39999C10.1977 2.28954 10.2872 2.19999 10.3977 2.19999H11.4258C11.5265 2.59012 11.9015 2.84442 12.301 2.79364C12.7005 2.74286 13 2.40292 13 1.99999C13 1.59716 12.7005 1.25713 12.301 1.20644C11.9015 1.15566 11.5265 1.40996 11.4258 1.79999H10.3977C10.0664 1.79999 9.7978 2.06864 9.7978 2.39999V4.19998C9.7978 4.31042 9.70827 4.39997 9.59785 4.39997H8.5981V2.59999C8.5981 1.68779 6.96492 1 4.79905 1C2.63319 1 1 1.68779 1 2.59999V11.3999C1 12.3121 2.63319 12.9999 4.79905 12.9999C6.96492 12.9999 8.5981 12.3121 8.5981 11.3999V10.3999H9.59785C9.70827 10.3999 9.7978 10.4895 9.7978 10.5999V11.7999C9.7978 12.1314 10.0664 12.3999 10.3977 12.3999H11.4258C11.5265 12.79 11.9015 13.0443 12.301 12.9936C12.7005 12.9428 13 12.6028 13 12.1999C13 11.7971 12.7005 11.457 12.301 11.4064C11.9015 11.3556 11.5265 11.6099 11.4258 11.9999H10.3977C10.2872 11.9999 10.1977 11.9104 10.1977 11.7999V10.5999C10.1977 10.2686 9.92912 9.99993 9.59785 9.99993H8.5981V7.19995ZM12.1972 6.59996C12.418 6.59996 12.5971 6.77906 12.5971 6.99995C12.5971 7.22095 12.418 7.39995 12.1972 7.39995C11.9764 7.39995 11.7973 7.22095 11.7973 6.99995C11.7973 6.77906 11.9764 6.59996 12.1972 6.59996V6.59996ZM12.1972 1.6C12.418 1.6 12.5971 1.7791 12.5971 1.99999C12.5971 2.22099 12.418 2.39999 12.1972 2.39999C11.9764 2.39999 11.7973 2.22099 11.7973 1.99999C11.7973 1.7791 11.9764 1.6 12.1972 1.6ZM12.1972 11.7999C12.418 11.7999 12.5971 11.979 12.5971 12.1999C12.5971 12.4209 12.418 12.5999 12.1972 12.5999C11.9764 12.5999 11.7973 12.4209 11.7973 12.1999C11.7973 11.979 11.9764 11.7999 12.1972 11.7999ZM4.79905 1.4C6.80236 1.4 8.1982 2.03241 8.1982 2.59999C8.1982 3.16766 6.80236 3.79998 4.79905 3.79998C2.79574 3.79998 1.3999 3.16766 1.3999 2.59999C1.3999 2.03241 2.79574 1.4 4.79905 1.4ZM1.3999 3.33485C2.01117 3.85681 3.27101 4.19998 4.79905 4.19998C6.32709 4.19998 7.58693 3.85681 8.1982 3.33485V5.59996C8.1982 6.16764 6.80236 6.79996 4.79905 6.79996C2.79574 6.79996 1.3999 6.16764 1.3999 5.59996V3.33485ZM4.79905 12.5999C2.79574 12.5999 1.3999 11.9676 1.3999 11.3999V9.1348C2.01117 9.65677 3.27101 9.99993 4.79905 9.99993C6.32709 9.99993 7.58693 9.65677 8.1982 9.1348V11.3999C8.1982 11.9676 6.80236 12.5999 4.79905 12.5999ZM4.79905 9.59993C2.79574 9.59993 1.3999 8.96761 1.3999 8.39994V6.33482C2.01117 6.85679 3.27101 7.19995 4.79905 7.19995C6.32709 7.19995 7.58693 6.85679 8.1982 6.33482V8.39994C8.1982 8.96761 6.80236 9.59993 4.79905 9.59993Z" fill="currentColor" stroke="currentColor" stroke-width="0.4"/>
<path d="M11.9976 1.80078H12.3975V2.20078H11.9976V1.80078Z" fill="currentColor" stroke="currentColor" stroke-width="0.4"/>
<path d="M11.9976 6.80078H12.3975V7.20078H11.9976V6.80078Z" fill="currentColor" stroke="currentColor" stroke-width="0.4"/>
<path d="M11.9976 12H12.3975V12.4H11.9976V12Z" fill="currentColor" stroke="currentColor" stroke-width="0.4"/>
</svg>

<svg xmlns="http://www.w3.org/2000/svg" width="14" height="14" fill="none"><path fill="currentColor" stroke="currentColor" stroke-width=".4" d="M8.598 7.2h2.828a.8.8 0 1 0 0-.4H8.598v-2h1a.6.6 0 0 0 .6-.6V2.4c0-.11.09-.2.2-.2h1.028a.8.8 0 1 0 0-.4h-1.028a.6.6 0 0 0-.6.6v1.8a.2.2 0 0 1-.2.2h-1V2.6C8.598 1.688 6.965 1 4.8 1S1 1.688 1 2.6v8.8c0 .912 1.633 1.6 3.8 1.6 2.165 0 3.798-.688 3.798-1.6v-1h1c.11 0 .2.09.2.2v1.2a.6.6 0 0 0 .6.6h1.028a.8.8 0 1 0 0-.4h-1.028a.2.2 0 0 1-.2-.2v-1.2a.6.6 0 0 0-.6-.6h-1V7.2Zm3.6-.6a.4.4 0 1 1-.001.8.4.4 0 0 1 0-.8Zm0-5a.4.4 0 1 1-.001.8.4.4 0 0 1 0-.8Zm0 10.2a.4.4 0 1 1-.001.8.4.4 0 0 1 0-.8ZM4.798 1.4c2.003 0 3.4.632 3.4 1.2s-1.397 1.2-3.4 1.2-3.4-.632-3.4-1.2 1.397-1.2 3.4-1.2ZM1.4 3.335c.612.522 1.872.865 3.4.865 1.528 0 2.788-.343 3.4-.865V5.6c0 .568-1.397 1.2-3.4 1.2s-3.4-.632-3.4-1.2V3.335ZM4.8 12.6c-2.003 0-3.4-.632-3.4-1.2V9.135c.612.522 1.872.865 3.4.865 1.528 0 2.788-.343 3.4-.865V11.4c0 .568-1.397 1.2-3.4 1.2Zm0-3c-2.003 0-3.4-.632-3.4-1.2V6.335c.612.522 1.872.865 3.4.865 1.528 0 2.788-.343 3.4-.865V8.4c0 .568-1.397 1.2-3.4 1.2Z"/><path fill="currentColor" stroke="currentColor" stroke-width=".4" d="M11.998 1.8h.4v.4h-.4v-.4ZM11.998 6.8h.4v.4h-.4v-.4ZM11.998 12h.4v.4h-.4V12Z"/></svg>
